svgs/thin/bowling-pins.svg

<svg xmlns="http://www.w3.org/2000/svg" viewBox="0 0 512 512"><!-- Font Awesome Pro 6.0.0-alpha2 by @fontawesome - https://fontawesome.com License - https://fontawesome.com/license (Commercial License) --><path d="M424 176.041C424 144.045 448 120.048 448 72.054S416 0.062 384.006 0H383.883C351.918 0 320 24.12 320 72.054C320 120.048 344 144.045 344 176.041C344 240.033 288 304.025 288 368.018C288 421.417 310.285 463.678 326.422 494.799C331.932 505.423 342.82 512 354.789 512H413.301C425.297 512 436.205 505.389 441.703 494.729C457.748 463.615 480 421.378 480 368.018C480 304.025 424 240.033 424 176.041ZM336 72.054C336 33.33 360.049 15.998 383.883 15.998H383.975C407.879 16.045 432 33.394 432 72.054C432 95.539 425.508 112.629 419.23 129.158C414.586 141.385 410.021 154.048 408.621 168.042H359.379C357.979 154.048 353.414 141.385 348.77 129.158C342.492 112.629 336 95.539 336 72.054ZM428.279 485.853L427.482 487.398C424.746 492.704 419.311 496.002 413.301 496.002H354.789C348.793 496.002 343.367 492.719 339.992 486.212C323.957 455.298 304 416.822 304 368.018C304 339.367 316.949 309.773 330.658 278.441C343.986 247.983 357.205 216.517 359.221 184.04H408.779C410.795 216.517 424.014 247.983 437.342 278.441C451.051 309.773 464 339.367 464 368.018C464 416.619 444.193 455.007 428.279 485.853ZM192 72.054C192 24.06 160 0.062 128.006 0H127.883C95.918 0 64 24.12 64 72.054C64 120.048 88 144.045 88 176.041C88 240.033 32 304.025 32 368.018C32 421.417 54.285 463.678 70.422 494.799C75.932 505.423 86.82 512 98.789 512H157.301C169.297 512 180.205 505.389 185.703 494.729C201.748 463.615 224 421.378 224 368.018C224 304.025 168 240.033 168 176.041C168 144.045 192 120.048 192 72.054ZM80 72.054C80 33.33 104.049 15.998 127.883 15.998H127.975C151.879 16.045 176 33.394 176 72.054C176 95.539 169.508 112.629 163.23 129.158C158.586 141.385 154.021 154.048 152.621 168.042H103.379C101.979 154.048 97.414 141.385 92.77 129.158C86.492 112.629 80 95.539 80 72.054ZM181.342 278.441C195.051 309.773 208 339.367 208 368.018C208 416.619 188.193 455.007 172.279 485.853L171.482 487.398C168.746 492.704 163.311 496.002 157.301 496.002H98.789C92.793 496.002 87.367 492.719 83.992 486.212C67.957 455.298 48 416.822 48 368.018C48 339.367 60.949 309.773 74.658 278.441C87.986 247.983 101.205 216.517 103.221 184.04H152.779C154.795 216.517 168.014 247.983 181.342 278.441Z"/></svg>

<svg xmlns="http://www.w3.org/2000/svg" viewBox="0 0 512 512"><!--! Font Awesome Pro 6.3.0 by @fontawesome - https://fontawesome.com License - https://fontawesome.com/license (Commercial License) Copyright 2023 Fonticons, Inc. --><path d="M424 176c0-31.1 24-55.99 24-103.1s-32.06-71.99-64.05-72.05C351.1 0 320 24.12 320 72.05c0 47.99 24 71.99 24 103.1c0 63.99-56 127.1-56 191.1c0 53.4 22.29 95.66 38.42 126.8C331.9 505.4 342.8 512 354.8 512h58.51c11.1 0 22.9-6.611 28.4-17.27C457.7 463.6 480 421.4 480 368C480 304 424 240 424 176zM336 72.05c0-38.72 24.05-56.06 47.88-56.06C407.8 16.04 432 33.39 432 72.05c0 23.49-6.492 40.58-12.77 57.1c-4.645 12.23-9.209 24.89-10.61 38.88h-49.24c-1.4-13.99-5.965-26.66-10.61-38.88C342.5 112.6 336 95.54 336 72.05zM428.3 485.9l-.7969 1.545c-2.736 5.306-8.172 8.604-14.18 8.604h-58.51c-5.996 0-11.42-3.283-14.8-9.79C323.1 455.3 304 416.8 304 368c0-28.65 12.95-58.24 26.66-89.58c13.33-30.46 26.55-61.92 28.56-94.4h49.56c2.016 32.48 15.23 63.94 28.56 94.4C451.1 309.8 464 339.4 464 368C464 416.6 444.2 455 428.3 485.9zM192 72.05c0-47.99-32.06-71.99-64.05-72.05C95.98 0 64 24.12 64 72.05c0 47.99 24 71.99 24 103.1C88 240 32 304 32 368c0 53.4 22.29 95.66 38.42 126.8C75.93 505.4 86.82 512 98.79 512h58.51c11.1 0 22.9-6.611 28.4-17.27C201.7 463.6 224 421.4 224 368c0-63.99-56-127.1-56-191.1C168 144 192 120 192 72.05zM80 72.05c0-38.72 24.05-56.06 47.88-56.06C151.8 16.04 176 33.39 176 72.05c0 23.49-6.492 40.58-12.77 57.1c-4.645 12.23-9.209 24.89-10.61 38.88H103.4c-1.4-13.99-5.965-26.66-10.61-38.88C86.49 112.6 80 95.54 80 72.05zM181.3 278.4C195.1 309.8 208 339.4 208 368c0 48.6-19.81 86.99-35.72 117.8l-.7969 1.545c-2.736 5.306-8.172 8.604-14.18 8.604H98.79c-5.996 0-11.42-3.283-14.8-9.79C67.96 455.3 48 416.8 48 368c0-28.65 12.95-58.24 26.66-89.58C87.99 247.1 101.2 216.5 103.2 184H152.8C154.8 216.5 168 247.1 181.3 278.4z"/></svg>
